X:1
T:Perseus's Return to Seriphos
C:T. S. Macdonald
M:6/8
L:1/8
K:Amix =g
E | A>cA Bce | aec dBd | cAc  edc | BGB B2 c |
    AcA  Bce | aec dBd | cae  fed | cAA A2 ||
B | cAc eac | dBd dcB | cAc edc | BGB B2 d |
    cAc eac | dBd dcB | cac fed | cAA A2 |]

